X:1
T:All Along the Line
T:V. Paul Jones
T:All Along the Line
T:Public Domain
T:Public Domain
T:Public Domain
C:V. Paul Jones
Z:Public Domain
%%score ( 1 2 ) 3
L:1/8
M:4/4
K:Ab
V:1 treble 
V:2 treble 
V:3 bass 
V:1
 [A,C]>[B,D] | [CE]2 [Ec]2 [EB]2 [DG]2 | [CA]6 [EA]>[EG] | [DF]2 [DB]2 [DA]2 [DF]2 | %4
w: 1.~If we|trem- ble in our|fear, If we|fal- ter in our|
w: 2.~If the|bat- tle rag- es|fierce, In our|Je- sus we will|
w: 3.~When the|ba- ttle has been|fought And the|con- flict we have|
 [CE]6 ([=B,=D]>[CE]) | [Ed]2 [Ed]2 [Ee]2 [Ed]2 | [Ec]4 [CA]4 | [=DF]2 [DG]2 [DA]2 [Dc]2 | %8
w: place, Our *|great com- mand- er’s|near, We’ll|look on Je- sus’|
w: trust; Think *|how His side was|pierced, On|Cal- va- ry for|
w: won, When~we *|stand be- fore His|throne, He’ll|say to us, “Well|
 [DB]6 [A,C]>[B,D] | [CE]2 [Ec]2 [EB]2 [DG]2 | [CA]2 [CA]4 [EA]>[EG] | [DF]2 [DB]2 [DA]2 [DF]2 | %12
w: face. Tho’ the|hosts of sin are|com- ing, We’ll not|fal- ter nor give|
w: us! For He|leads, our lov- ing|Sav- ior, And in-|spires us all to|
w: done.” We have|fought the fight for|Je- sus And have|con- quered sin’s fell|
 [CE]6 [=B,=D]>[CE] | [Ed]2 [Ed]2 [Ee]2 [Ed]2 | [Ec]2 [CA]4 C>D | [CE]2 [C=E]2 [DF]2 [DG]2 | %16
w: way; ’Neath the|ban- ner- cross of|Je- sus We will|win the day. *|
w: say, ’Neath the|ban- ner- cross of|Je- sus We will|win the day. All|
w: sway; ’Neath the|ban- ner- cross of|Je- sus We will|win the day. *|
 [CA]6 z2 ||"^Refrain" [Ae]>[Ae] [Ae]>[Af] [Ae]2 [Ac]>[AB] | [EA]2 [EA]>[EB] [EA]2 E2 | %19
w: |||
w: a-|long the line stand to- ge- ther|for Je- sus, Fight- ing|
w: |||
 [Ae]2 [Ae]>[Af] [Ae]2 [Ac]>[AB] | [EA]2 [Ac]>[Ac] [GB]4 | [Ae]2 [Ae]>[Af] [Ae]2 [Ac]2 | %22
w: |||
w: Him as we march on the|foe; Ring out the|slo- gan, He will ne-|
w: |||
 [FA]>[FA] [FA]>[FB] [FA]2 [DF]2 | E[EF][EG][EA] [Ec]2 [DB]2 | [CA]6 |] %25
w: |||
w: ver leave us, Vic- to- ry|wher- e’er we go! * *||
w: |||
V:2
 x2 | x8 | x8 | x8 | x8 | x8 | x8 | x8 | x8 | x8 | x8 | x8 | x8 | x8 | x6 C>D | x8 | x8 || x8 | %18
w: ||||||||||||||sure- ly||||
w: ||||||||||||||sure- ly||||
w: ||||||||||||||sure- ly||||
 x6 E2 | x8 | x8 | x8 | x8 | E x7 | x6 |] %25
w: |||||||
w: for|||||||
w: |||||||
V:3
 [A,,A,]>[A,,A,] | [A,,A,]2 [A,,A,]2 [E,G,]2 [E,G,]2 | [A,,A,]6 [C,A,]>[C,A,] | %3
 [D,A,]2 [D,F,]2 [D,F,]2 [D,A,]2 | [A,,A,]6 [A,,A,]2 | [E,G,]2 [E,G,]2 [E,F,]2 [E,G,]2 | %6
 [A,,A,]4 [F,A,]4 | [B,,A,]2 [B,,A,]2 [B,,A,]2 [B,,A,]2 | [E,G,]6 [A,,A,]>[A,,A,] | %9
 [A,,A,]2 [A,,A,]2 [E,G,]2 [E,G,]2 | [A,,A,]2 [A,,A,]4 [C,A,]>[C,A,] | %11
 [D,A,]2 [D,F,]2 [D,F,]2 [D,A,]2 | [A,,A,]6 [A,,A,]>[A,,A,] | [E,G,]2 [E,G,]2 [E,F,]2 [E,F,]2 | %14
 [A,,A,]2 [A,,A,]4 [F,A,]>[_F,A,] | [E,A,]2 [E,A,]2 [E,G,]2 [E,B,]2 | [A,,A,]6 z2 || %17
 [A,C]>[A,C] [A,C]>[A,D] [A,C]2 [A,E]>[A,D] | [A,C]2 [A,C]>[A,D] [A,C]2 [A,C]2 | %19
 [A,C]2 [A,C]>[A,D] [A,C]2 [A,E]>[A,D] | [A,C]2 [A,E]>[A,E] [E,E]4 | %21
 [A,C]2 [A,C]>[A,D] [A,C]2 [A,C]2 | [D,D]>[D,D] [D,D]>[D,D] [D,D]2 [D,A,]2 | %23
 [E,G,][E,A,][E,B,][E,C] [E,A,]2 [E,G,]2 | [A,,A,]6 |] %25

